!!!id: BC111
!!!page: 138-139t
!!!COM: Anonymous
!!!LYR: Anonymous
!!!PTL@@FR: Les 100 plus belles chansons
!!!OTL@@FR: Youppe! Youppe! Sur la rivière
!!!PUB: La Bonne Chanson, inc.
!!!YEM: On ne peut reproduire, enregistrer ou diffuser en tout ou en partie le présent ouvrage, sous quelque procédé que ce soit, électronique, mécanique, photographique, sonore, magnétique ou autre, sans avoir obtenu au préalable l'autorisation écrite de l'éditrice.
!!!PDT: 2011
!!!SMA: 2012 Bibliothèque nationale du Québec; Biblothèque nationale du Canada
!!!AGN-Laforte: strophique
!!!AGN-refrain: final
!!!AGN-metre: 5:4(6+6); R:1(8+6)
!!!AGN-topic: [amour, us et coutumes]
!!!AGN-rime: mixte: v:1, simple /e/; R1-2, partial (aaax); v:2-5, suivie (aabb)
**kern	**text	**text	**text	**text	**text
*clefG2	*	*	*	*	*
*k[f#]	*	*	*	*	*
*G:	*	*	*	*	*
!!LO:TX:a:i:t=Gai
*M2/4	*	*	*	*	*
*	*v:1	*v:2	*v:3	*v:4	*v:5
*	*pline:1h1	*pline:5h1	*pline:9h1	*pline:13h1	*pline:17h1
8d	Par	J'y	"Ah!	Re-	J'n'at-
=1	=1	=1	=1	=1	=1
8g	un	al-	oui,	-ve-	-tends
8a	di-	-lu-	vrai-	-nons	pas
8b	-manch[e]	-mai	-ment,	au	qu'on
8a	au	ma	dit--	bon-	me
=2	=2	=2	=2	=2	=2
[4g	soir,	pip[e],	ell[e],	-homm'	l'dis[e]
8g]	.	.	.	.	.
*	*pline:1h2	*pline:5h2	*pline:9h2	*pline:13h2	*pline:17h2
!	!Capitalized in original	!	!	!	!
8d	m'en	comm'	a-	qu'est	pour
=3	=3	=3	=3	=3	=3
8g	al-	c'é-	-vec	dans	la
!	!	!	!	!not in original; added to fit melody	!
8a	-lant	-tait	un	[le]	se-
8b	pro-	la	grand	lit,	-con-
8a	-me-	fa-	plai-	cou-	-de
!!LO:PB:g=original
=4	=4	=4	=4	=4	=4
4.g	-ner,	-çon,	-sir,	-ché,	fois,
*	*rp:e	*rp:ɔ̃	*rp:i	*rp:e	*rp:a
*	*rf:ne	*rf:sɔ̃	*rf:iʁ	*rf:ʃe	*rf:wa
*	*rs:a1	*rs:b	*rs:d	*rs:a5	*rs:e
*	*pline:2h1	*pline:6h1	*pline:10h1	*pline:14h1	*pline:18h1
8g	Et	Di-	Tu	Cri-	Et
=5	=5	=5	=5	=5	=5
8.g	moi	-sant	es	-ant	je
16g	et	quel-	ve-	à	dis
8g	puis	-ques	-nu	hau-	à
8g	Fran-	pa-	ce	-te	Fran-
=6	=6	=6	=6	=6	=6
8.g	-çois,	-rol's	soir,	voix:	-çois:
*	*pline:2h2	*pline:6h2	*pline:10h2	*pline:14h2	*pline:18h2
16f#	tous	aux	c'est	"Li-	"T'en
8g	deux	gens	seul'-	-ma,	viens--
8a	de	de	-ment	va	tu
=7	=7	=7	=7	=7	=7
4b	com-	la	pour	te	quand
4g	-pa-	mai-	en	cou-	et
!!LO:PB:g=original
=8	=8	=8	=8	=8	=8
4d	-gnée,	-son,	rir[e];	-cher!	moi?
*	*rp:e	*rp:ɔ̃	*rp:i	*rp:e	*rp:a
*	*rf:ɲe	*rf:zɔ̃	*rf:iʁ	*rf:ʃe	*rf:wa
*	*rs:a2	*rs:b'	*rs:d	*rs:a5	*rs:e
8r	.	.	.	.	.
*	*pline:3h1	*pline:7h1	*pline:11h1	*pline:15h1	*pline:19h1
8b	Chez	Je	Tu	Les	Bon-
=9	=9	=9	=9	=9	=9
!!LO:TX:a:i:t=rall.
8.b	le	dis	es	gens	-soir,
16a	bon-	à	trop	de	ma
8b	-homm'	Dé-	in-	la	Dé-
8cc	Gau-	-li-	-fi-	cam-	-li-
=10	=10	=10	=10	=10	=10
(4b	-thier	-ma:	-dèl[e]	pagn[e],	-ma,
8dd)	.	.	.	.	.
*	*pline:3h2	*pline:7h2	*pline:11h2	*pline:15h2	*pline:19h2
!!LO:TX:a:B:t=a Tempo
8b	nous	"Me	pour	des	je
=11	=11	=11	=11	=11	=11
8cc	a-	per-	me	vill's	fi-
8b	-vons	-met-	par-	et	-le
8a	'té	-tri-	-ler	des	mon
8g	veil-	-ez--	d'a-	fau-	che-
!!LO:PB:g=original
=12	=12	=12	=12	=12	=12
4d	-ler,	vous	-mour:	-bourgs,	-min!"
*	*rp:e	*rp:u	*rp:u	*rp:u	*rp:ẽ
*	*rf:je	*rf:vu	*rf:uʁ	*rf:uʁ	*rf:mẽ
*	*rs:a3	*rs:c1	*rs:c2	*rs:c3	*rs:f
8r	.	.	.	.	.
*	*pline:4h1	*pline:8h1	*pline:12h1	*pline:16h1	*pline:20h1
8d	Je	De	T'as	Re-	Je
=13	=13	=13	=13	=13	=13
8.d	vais	m'é-	la	-ti-	m'en
!	!	!	!original missing final apostrophe	!	!
16e	vous	-loi-	p'tit'	-rez--	al-
8f#	ra-	-gner	Jé-	vous	-lais
8g	-con-	des	-ré-	d'i-	nu--
=14	=14	=14	=14	=14	=14
8a	-ter	autr's	-mie	-ci,	têt[e],
*	*pline:4h2	*pline:8h2	*pline:12h2	*pline:16h2	*pline:20h2
8b	l'tour	pour	que	car	mon
8cc	qui	m'ap-	tu	il	cha-
8a	m'est	-pro-	ai-	fait	-peau
!!LO:PB:g=original
=15	=15	=15	=15	=15	=15
4f#	ar-	-cher	-mes	bien-	à
4a	-ri-	de	tou-	-tôt	la
=||16	=||16	=||16	=||16	=||16	=||16
*M6/8	*	*	*	*	*
4g	-vé.	vous?"	-jours."	jour!"	main.
*	*rp:e	*rp:u	*rp:u	*rp:u	*rp:ẽ
*	*rf:ve	*rf:vu	*rf:uʁ	*rf:uʁ	*rf:mẽ
*	*rs:a4	*rs:c1	*rs:c2	*rs:c3	*rs:f
8r	.	.	.	.	.
!!LO:TX:a:B:t= Refrain
=||	=||	=||	=||	=||	=||
*>Refrain	*>Refrain	*>Refrain	*>Refrain	*>Refrain	*>Refrain
*	*refrain	*	*	*	*
*	*italic	*	*	*	*
*	*pline:R1h1	*	*	*	*
8b	Youp-	.	.	.	.
8r	.	.	.	.	.
8b	-pe!	.	.	.	.
=17	=17	=17	=17	=17	=17
*	*bis	*	*	*	*
8b	Youp-	.	.	.	.
8r	.	.	.	.	.
8b	-pe!	.	.	.	.
*	*Xbis	*	*	*	*
8b	sur	.	.	.	.
8b	la	.	.	.	.
8b	ri-	.	.	.	.
!!LO:PB:g=original
=||18	=||18	=||18	=||18	=||18	=||18
*M9/8	*	*	*	*	*
4b	-viè-	.	.	.	.
8a	-re,	.	.	.	.
*	*rp:ɛː	*	*	*	*
*	*rf:ɛːʁ,ə	*	*	*	*
*	*rs:g	*	*	*	*
*	*pline:R1h2	*	*	*	*
8a	Vous	.	.	.	.
8a	ne	.	.	.	.
8a	m'en-	.	.	.	.
4b	-ten-	.	.	.	.
8a	-dez	.	.	.	.
=||19	=||19	=||19	=||19	=||19	=||19
*M6/8	*	*	*	*	*
4a	guè-	.	.	.	.
8g	-re,	.	.	.	.
*	*rp:ɛː	*	*	*	*
*	*rf:ɛːʁ,ə	*	*	*	*
*	*rs:g	*	*	*	*
*	*pline:R1hr	*	*	*	*
8b	Youp-	.	.	.	.
8r	.	.	.	.	.
8b	-pe!	.	.	.	.
!!LO:PB:g=original
=20	=20	=20	=20	=20	=20
*	*bis	*	*	*	*
8b	Youp-	.	.	.	.
8r	.	.	.	.	.
8b	-pe!	.	.	.	.
*	*Xbis	*	*	*	*
8b	sur	.	.	.	.
8b	la	.	.	.	.
=||21	=||21	=||21	=||21	=||21	=||21
*M9/8	*	*	*	*	*
4b	ri-	.	.	.	.
8a	-viè-	.	.	.	.
8a	-re,	.	.	.	.
*	*rp:ɛː	*	*	*	*
*	*rf:ɛːʁ,ə	*	*	*	*
*	*rs:g	*	*	*	*
*	*pline:R1h2r(v6)	*	*	*	*
8a	Vous	.	.	.	.
8a	ne	.	.	.	.
4b	m'en-	.	.	.	.
8a	-ten-	.	.	.	.
=||22	=||22	=||22	=||22	=||22	=||22
*M2/4	*	*	*	*	*
4g	-dez	.	.	.	.
!	!final word variant	!	!	!	!
8r	pas.	.	.	.	.
*	*rp:a	*	*	*	*
*	*rf:pa	*	*	*	*
*	*rs:x	*	*	*	*
*	*Xitalic	*	*	*	*
*	*Xrefrain	*	*	*	*
==	==	==	==	==	==
*-	*-	*-	*-	*-	*-
!!!EED: Ève Poudrier
!!!EEV: 2026/04/21
